!!!COM: Palestrina, Giovanni Perluigi da
!!!OPR: Salve regina
!!!OTL: Credo
**kern	**kern	**kern	**kern	**kern
*Ibass	*Itenor	*Icalto	*Icalto	*Icant
!Bassus	!Tenor	!Altus 2	!Altus 1	!Cantus
*clefF4	*clefGv2	*clefG2	*clefG2	*clefG2
*k[b-]	*k[b-]	*k[b-]	*k[b-]	*k[b-]
*G:dor	*G:dor	*G:dor	*G:dor	*G:dor
*M4/2	*M4/2	*M4/2	*M4/2	*M4/2
=1	=1	=1	=1	=1
0r	1g	0r	1b-	1dd
.	2f#	.	2a	[1dd
.	2g	.	2b-	.
=2	=2	=2	=2	=2
0r	2d	1r	2b-	2dd]
.	2f	.	2a	2dd
.	1e-	2r	1g	2cc
.	.	2g	.	2cc
=3	=3	=3	=3	=3
0r	2d	2f	2a	0dd
.	2G	2g	2b-	.
.	2B-	2d	2b-	.
.	2d	2f	2a	.
=4	=4	=4	=4	=4
0r	1c	1e	1cc	1g
.	2G	2d	2b-	1dd
.	2G	2g	2b-	.
=5	=5	=5	=5	=5
0r	2A	2e	2a	2cc
.	2F	2f	2a	2cc
.	4G	2.d	2g	1b-
.	4A	.	.	.
.	4B-	.	[2f	.
.	4c	4e	.	.
=6	=6	=6	=6	=6
0r	4d	1f	4f]	1a
.	4e	.	4g	.
.	1f	.	4a	.
.	.	.	4b-	.
.	.	1c	1cc	1g
.	2e	.	.	.
=7	=7	=7	=7	=7
0r	1d	2.f	2r	2.a
.	.	.	2.f	.
.	.	4g	.	4b-
.	2.c	4a	.	[1cc
.	.	4g	8e	.
.	.	.	8d	.
.	.	[2g	2e	.
.	4B-	.	.	.
=8	=8	=8	=8	=8
1r	1A	2g]	1c	1cc]
.	.	2f#	.	.
2r	2G	2g	2d	2b
[2G	[2B	[2d	[2g	[2dd
=9	=9	=9	=9	=9
2G]	2B]	2d]	2g]	2dd]
2G	2B	2d	2g	2dd
2C	2.c	2.g	2e	2ee
2C	.	.	2g	2ee
.	4c	4g	.	.
=10	=10	=10	=10	=10
1F	2c	4f	1a	1ff
.	.	4e	.	.
.	2.d	4d	.	.
.	.	4c	.	.
[1G	.	4B-	[1b-	[1dd
.	4c	4A	.	.
.	4B-	2G	.	.
.	4A	.	.	.
=11	=11	=11	=11	=11
2G]	2.B-	2g	2b-]	2dd]
2G	.	2g	2b-	2dd
.	4c	.	.	.
2D	2d	2f	1a	2dd
[2d	2d	[2a	.	[2ff
=12	=12	=12	=12	=12
2d]	1A	2a]	0r	2ff]
2c	.	2a	.	2ee
2A	1r	2a	.	2cc
2B-	.	2f	.	2dd
=13	=13	=13	=13	=13
2.G	2r	2g	2r	2.b-
.	1g	2g	1b-	.
4A	.	.	.	4cc
4B-	.	1d	.	4dd
4c	.	.	.	4ee
[2d	2f	.	2a	[2ff
=14	=14	=14	=14	=14
2d]	2d	1r	2f	4ff]
.	.	.	.	4ee
2B-	2d	.	2g	1dd
1A	2e	2r	2.a	.
.	2e	[2a	.	2cc#
.	.	.	4a	.
=15	=15	=15	=15	=15
2r	1d	2a]	1f	2dd
1B-	.	2d	.	1dd
.	2r	[1f	2.b-	.
2B-	2d	.	.	2dd
.	.	.	4b-	.
=16	=16	=16	=16	=16
1B-	2d	1f]	2b-	1dd
.	2.d	.	2B-	.
1BB-	.	1d	[1f	1b-
.	4c	.	.	.
.	[2B-	.	.	.
=17	=17	=17	=17	=17
2.F	2B-]	2.c	2f]	2.cc
.	2A	.	2f	.
4F	.	4c	.	4cc
1BB-	1B-	1f	2d	1dd
.	.	.	[2b-	.
=18	=18	=18	=18	=18
1E-	1G	1g	2b-]	1b-
.	.	.	1g	.
1C	1c	1g	.	1ee-
.	.	.	[2cc	.
=19	=19	=19	=19	=19
0G	0d	0g	2cc]	0dd
.	.	.	4b-	.
.	.	.	4a	.
.	.	.	1b-	.
=20	=20	=20	=20	=20
0D	2d	0f#	2a	1dd
.	2.d	.	2.a	.
.	.	.	.	2r
.	4d	.	4a	.
.	2d	.	2a	[2dd
=21	=21	=21	=21	=21
0r	2.g	2r	1b	4dd]
.	.	.	.	4dd
.	.	2.g	.	2dd
.	4f	.	.	.
.	4e	.	1cc	2.gg
.	4d	4g	.	.
.	[2c	2g	.	.
.	.	.	.	4ff
=22	=22	=22	=22	=22
0r	2c]	2cc	0r	2ee
.	2d	2b-	.	2dd
.	2f	2a	.	2cc
.	2g	2g	.	2b-
=23	=23	=23	=23	=23
1r	2.d	2g	2r	2a
.	.	2f#	1d	2a
.	4d	.	.	.
2r	1G	1g	.	[1b
[2G	.	.	2d	.
=24	=24	=24	=24	=24
2G]	1r	2r	2.g	1b]
2G	.	1g	.	.
.	.	.	4f	.
2.c	2r	.	4e	1r
.	.	.	4d	.
.	[2c	2g	2e	.
4B-	.	.	.	.
=25	=25	=25	=25	=25
4A	2c]	2.cc	2e	0r
4G	.	.	.	.
1F	2c	.	2.a	.
.	.	4b-	.	.
.	2f	2a	.	.
.	.	.	4f	.
2G	2e	2g	[2b-	.
=26	=26	=26	=26	=26
2B-	2d	2f	2b-]	1r
2c	1c	2e	2a	.
[1G	.	1d	[1g	2r
.	4B	.	.	[2dd
.	4A	.	.	.
=27	=27	=27	=27	=27
1G]	1B	2r	1g]	2dd]
.	.	1g	.	2dd
[1C	1c	.	[1e	2.gg
.	.	2g	.	.
.	.	.	.	4ff
=28	=28	=28	=28	=28
2C]	2r	2.cc	2e]	4ee
.	.	.	.	4dd
2C	1c	.	2e	1cc
.	.	4b-	.	.
2.F	.	4a	2f	.
.	.	4g	.	.
.	2c	[2f	2c	2a
4E	.	.	.	.
=29	=29	=29	=29	=29
4D	2.f	2f]	2d	2a
4C	.	.	.	.
1BB-	.	2d	2f	1b-
.	4e	.	.	.
.	2d	1f	2g	.
2F	2c	.	[2a	2a
=30	=30	=30	=30	=30
1G	1B-	1.d	4a]	0dd
.	.	.	4g	.
.	.	.	1g	.
2.D	2.A	.	.	.
.	.	2d	2f#	.
4D	4A	.	.	.
=31	=31	=31	=31	=31
2G	1G	2B-	2g	2r
2G	.	2b-	2g	2dd
2D	1r	2a	2f	2dd
2F	.	2a	2f	2cc
=32	=32	=32	=32	=32
1G	1r	1g	1d	1b-
1D	2r	2f	2d	2a
.	2d	2f	2a	2ff
=33	=33	=33	=33	=33
0r	2A	2cc	2a	2ff
.	2c	2cc	2g	2ee
.	2d	2.a	2f	2dd
.	2d	.	2f	2dd
.	.	4a	.	.
=34	=34	=34	=34	=34
2r	1A	2a	2e	2cc#
1D	.	1a	1f	1dd
.	1r	.	.	.
2D	.	[2b-	2f	2dd
=35	=35	=35	=35	=35
1E-	1r	4b-]	1g	2b-
.	.	4a	.	.
.	.	1g	.	2cc
1D	2r	.	[1a	[1dd
.	[2d	4f	.	.
.	.	4e	.	.
=36	=36	=36	=36	=36
1D	2d]	4f	2a]	1dd]
.	.	4g	.	.
.	2d	4a	2f	.
.	.	4b-	.	.
1C	1e-	1cc	2g	1r
.	.	.	2a	.
=37	=37	=37	=37	=37
1BB-	1d	1f	1b-	2r
.	.	.	.	2b-
2r	1d	2r	1f	2a
2B-	.	2d	.	2f
=38	=38	=38	=38	=38
2A	2c	2f	1r	2a
2G	2B-	2e	.	1b-
1F	1c	1f	2r	.
.	.	.	[2f	2a
=39	=39	=39	=39	=39
2BB-	2B-	1d	2f]	1b-
1B-	1d	.	2g	.
.	.	2r	1f	1r
2A	2c	[2f	.	.
=40	=40	=40	=40	=40
1B-	1.d	2f]	1r	0r
.	.	2g	.	.
1A	.	2f	1a	.
.	2c#	2e	.	.
=41	=41	=41	=41	=41
1G	1d	1g	1b	1r
2F	[1f	[1a	2cc	2r
[2F	.	.	[2cc	[2ff
=42	=42	=42	=42	=42
2F]	1f]	1a]	2cc]	2ff]
2F	.	.	2a	2cc
2.B-	1r	2r	2f	2.dd
.	.	[2d	2f	.
4A	.	.	.	4cc
=43	=43	=43	=43	=43
2G	0r	2d]	2g	2b-
2D	.	2d	2f	2a
1A	.	2e	1a	1cc
.	.	2e	.	.
=44	=44	=44	=44	=44
1D	2r	2.f	2a	1dd
.	1f	.	2a	.
.	.	4g	.	.
1r	.	4a	2a	2ff
.	.	4b-	.	.
.	2c	2cc	[2g	2ee
=45	=45	=45	=45	=45
0r	2.d	1a	2g]	2dd
.	.	.	2f	2dd
.	4c	.	.	.
.	2B-	2r	2g	2dd
.	2A	[2cc	[2a	[2ff
=46	=46	=46	=46	=46
0r	1c	4cc]	2a]	4ff]
.	.	4b-	.	4ee
.	.	2cc	2.g	2.ee
.	1d	2a	.	.
.	.	.	4f	4dd
.	.	[2a	4f	[2dd
.	.	.	8e	.
.	.	.	8d	.
=47	=47	=47	=47	=47
1r	1A	2a]	1e	2dd]
.	.	2e	.	2cc#
2r	2r	2.f	2d	1dd
[2B-	2d	.	[2b-	.
.	.	4e	.	.
=48	=48	=48	=48	=48
2B-]	1f	2d	2b-]	0r
2F	.	1c	2a	.
2.G	2e	.	1g	.
.	2d	2B	.	.
4F	.	.	.	.
=49	=49	=49	=49	=49
2E	2e	2c	2g	0r
1D	2.f	2d	2b-	.
.	.	2.f	2a	.
.	4e	.	.	.
2F	4d	.	2a	.
.	4c	4e	.	.
=50	=50	=50	=50	=50
1G	4B	4d	0g	1r
.	2c	4c	.	.
.	.	2d	.	.
.	4B	.	.	.
1C	1c	2e	.	2r
.	.	2e	.	2g
=51	=51	=51	=51	=51
0r	2r	2f	1r	2a
.	2G	4g	.	2b-
.	.	4f	.	.
.	2A	4e	2r	2cc
.	.	4f	.	.
.	2B-	2d	2d	[2g
=52	=52	=52	=52	=52
0r	1c	4c	2.e	2g]
.	.	4d	.	.
.	.	4e	.	2a
.	.	4c	4f	.
.	4G	1d	2g	[1b-
.	4A	.	.	.
.	4B-	.	4d	.
.	4c	.	4e	.
=53	=53	=53	=53	=53
0r	4d	1r	2f	2b-]
.	4e	.	.	.
.	1f	.	2f	2a
.	.	2r	1c	1g
.	2e	2g	.	.
=54	=54	=54	=54	=54
2r	1d	2a	2r	1f
2D	.	2b-	2f	.
2E	2r	1cc	2g	1r
2F	2f	.	2a	.
=55	=55	=55	=55	=55
1G	2d	1g	1b-	0r
.	2d	.	.	.
1D	1d	2a	1f	.
.	.	[2b-	.	.
=56	=56	=56	=56	=56
2E	2.c	2b-]	2g	2r
1F	.	4a	1a	2cc
.	4B-	4g	.	.
.	4A	2f	.	2dd
.	4F	.	.	.
2E	[2c	2g	2g	2ee
=57	=57	=57	=57	=57
1D	2c]	2a	2.f	1ff
.	2B	2d	.	.
.	.	.	4g	.
1C	1c	1e	4a	2ee
.	.	.	4b-	.
.	.	.	[2cc	2ee
=58	=58	=58	=58	=58
1r	1G	1g	2cc]	1dd
.	.	.	2b	.
1F	1A	2c	2cc	1cc
.	.	[2f	2a	.
=59	=59	=59	=59	=59
1D	2r	2f]	1a	1ff
.	1f	1d	.	.
[1BB-	.	.	1b-	1dd
.	[2d	2B-	.	.
=60	=60	=60	=60	=60
1BB-]	2d]	1f	2r	1b-
.	1B-	.	2b-	.
1E-	.	2.g	1b-	2g
.	2G	.	.	[2gg
.	.	4f	.	.
=61	=61	=61	=61	=61
0C	2.g	4e-	2.cc	4gg]
.	.	4d	.	4ff
.	.	4c	.	4ee-
.	4f	4d	8b-	4dd
.	.	.	8a	.
.	4e-	1e-	2g	4cc
.	4d	.	.	4b-
.	[2c	.	[2a	4a
.	.	.	.	4g
=62	=62	=62	=62	=62
0D	2c]	[0d	2a]	2f#
.	2B-	.	1g	2g
.	1A	.	.	1a
.	.	.	2f#	.
=63	=63	=63	=63	=63
1G	1G	1d]	1g	1b
1r	1r	1r	1r	1r
=64	=64	=64	=64	=64
1G	1B-	1g	1d	1g
1G	1B-	1b-	1g	1dd
=65	=65	=65	=65	=65
1E-	1G	1b-	1g	1ee-
1BB-	1B-	1b-	1f	1dd
=66	=66	=66	=66	=66
1F	1c	1a	1f	1cc
[1BB-	2B-	2b-	2f	2dd
.	2B-	2f	2b-	2dd
=67	=67	=67	=67	=67
1BB-]	1B-	1f	1b-	1dd
1r	2F	2f	2cc	2a
.	2F	2f	2a	2cc
=68	=68	=68	=68	=68
0r	0G	1d	0g	0b-
.	.	1d	.	.
=69	=69	=69	=69	=69
1.D	2d	2r	2f#	1a
.	1d	1f#	1a	.
.	.	.	.	1r
2D	2d	2f#	2a	.
=70	=70	=70	=70	=70
1G	1d	1g	1b	0r
1F	1f	1a	1cc	.
=71	=71	=71	=71	=71
1C	2.e-	2.g	2.cc	0r
.	4d	4f	4b-	.
1C	2c	2e-	2a	.
.	2B-	2e-	2g	.
=72	=72	=72	=72	=72
1D	1A	1d	1f#	1r
1G	2r	1d	1g	1b
.	[2G	.	.	.
=73	=73	=73	=73	=73
1C	2G]	1e-	1g	1cc
.	1c	.	.	.
1G	.	[1d	[1g	1dd
.	4B-	.	.	.
.	4A	.	.	.
=74	=74	=74	=74	=74
1.G	2B-	1d]	2g]	0dd
.	2G	.	1b-	.
.	[1d	2.B-	.	.
4F	.	.	4a	.
4E-	.	4c	4g	.
=75	=75	=75	=75	=75
1D	2d]	1d	2f#	0dd
.	4c	.	1g	.
.	4B-	.	.	.
1D	2A	1d	.	.
.	2A	.	2f#	.
=76	=76	=76	=76	=76
0G	0G	0d	0g	0b
*	*	*	*	*-
!! Crucifixus
*Itenor	*Icalto	*Icalto	*Icant
!Tenor	!Altus 2	!Altus 1	!Cantus
*clefGv2	*clefG2	*clefG2	*clefG2
*k[b-]	*k[b-]	*k[b-]	*k[b-]
*G:dor	*G:dor	*G:dor	*G:dor
*M4/2	*M4/2	*M4/2	*M4/2
=77	=77	=77	=77
0r	0r	1.g	0r
.	.	2d	.
=78	=78	=78	=78
0r	0r	1f	0r
.	.	1g	.
=79	=79	=79	=79
0r	0r	2.b-	1.dd
.	.	4a	.
.	.	2g	.
.	.	2f	2a
=80	=80	=80	=80
0r	0r	1e	1cc
.	.	2d	1dd
.	.	2g	.
=81	=81	=81	=81
0r	0r	2a	2.ff
.	.	1b-	.
.	.	.	4ee
.	.	.	2dd
.	.	[2a	2cc
=82	=82	=82	=82
1r	0r	2a]	1b-
.	.	1g	.
[1d	.	.	2a
.	.	4f	4dd
.	.	4e	4cc
=83	=83	=83	=83
2d]	0r	4f	4dd
.	.	4g	4ee
2A	.	2a	1ff
1c	.	1g	.
.	.	.	2ee
=84	=84	=84	=84
1d	1r	2f	2.ff
.	.	1a	.
.	.	.	8ee
.	.	.	8dd
2.f	[1a	.	2cc
.	.	2d	[2ff
4e	.	.	.
=85	=85	=85	=85
2d	2a]	2f	4ff]
.	.	.	4dd
2c	2e	2.g	2.ee
1B-	1g	.	.
.	.	4f	4dd
.	.	4e	[2dd
.	.	4d	.
=86	=86	=86	=86
1A	1a	1e	2dd]
.	.	.	2cc#
[1G	2.b-	2.g	1dd
.	4a	4f	.
=87	=87	=87	=87
1G]	2g	2e	0r
.	2f	1d	.
1A	1e	.	.
.	.	2c#	.
=88	=88	=88	=88
1B-	2d	1d	2r
.	2f	.	2dd
1G	2.b-	1r	2.dd
.	4a	.	4cc
=89	=89	=89	=89
0r	2g	2r	2b-
.	2f#	2d	2a
.	2.g	2.b-	4g
.	.	.	4a
.	.	.	4b-
.	4a	4a	4cc
=90	=90	=90	=90
0r	4b-	2g	2.dd
.	4g	.	.
.	2.a	2f	.
.	.	.	4cc
.	.	1g	2b-
.	4g	.	.
.	[2g	.	4a
.	.	.	4g
=91	=91	=91	=91
1r	2g]	1d	1a
.	2f#	.	.
[1c	1g	[1e	1g
=92	=92	=92	=92
1c]	1g	1e]	1cc
1A	1a	2e	1cc
.	.	[2f	.
=93	=93	=93	=93
1c	1g	2f]	2r
.	.	1e	1cc
1d	2r	.	.
.	[2f	[2d	[2b-
=94	=94	=94	=94
1A	2f]	2d]	2b-]
.	1e	2c#	1a
1B-	.	1d	.
.	[2d	.	2g
=95	=95	=95	=95
1A	2d]	1e	1.a
.	2c#	.	.
1d	2d	1d	.
.	2f#	.	2a
=96	=96	=96	=96
0r	2g	0r	2b-
.	2a	.	2cc
.	2.b-	.	2.dd
.	4a	.	4cc
=97	=97	=97	=97
0r	2g	0r	2b-
.	2f	.	2a
.	[1g	.	4g
.	.	.	4a
.	.	.	4b-
.	.	.	4cc
=98	=98	=98	=98
0r	2g]	1r	4dd
.	.	.	4ee
.	4f	.	2.ff
.	4e	.	.
.	4d	1f	.
.	4c	.	4ee
.	2d	.	[2dd
=99	=99	=99	=99
1r	2e	2g	2dd]
.	2f	2a	2cc
2r	1B-	2.b-	1dd
2B-	.	.	.
.	.	4a	.
=100	=100	=100	=100
2c	0r	2g	1r
2d	.	2f	.
2.e-	.	[1g	1b-
4d	.	.	.
=101	=101	=101	=101
2c	0r	1g]	2cc
2B-	.	.	2dd
2c	.	2.g	2.ee-
[2e-	.	.	.
.	.	4f	4dd
=102	=102	=102	=102
2e-]	2r	4g	2cc
.	.	4a	.
2d	2f	1b-	2b-
1c	2g	.	1cc
.	2a	2a	.
=103	=103	=103	=103
1B-	2.b-	2g	0dd
.	.	2f	.
.	4a	.	.
1r	2g	2b-	.
.	2f#	2a	.
=104	=104	=104	=104
1r	2g	2b-	0dd
.	1b-	1g	.
[1d	.	.	.
.	2a	2f#	.
=105	=105	=105	=105
1d]	2r	2r	1dd
.	2a	2f#	.
1G	1b-	1g	1dd
=106	=106	=106	=106
2A	2a	2e	2cc
2B-	2f	2d	2b-
[1F	4cc	4f	4a
.	4b-	4g	4g
.	4a	4a	4f
.	4g	4b-	4g
=107	=107	=107	=107
1F]	2.f	4cc	4a
.	.	4b-	4b-
.	.	2a	1cc
.	4e	.	.
1G	1d	2g	.
.	.	[2g	2b
=108	=108	=108	=108
2r	2c	2g]	1cc
1c	1e	2g	.
.	.	1cc	1r
2c	2e	.	.
=109	=109	=109	=109
1f	1a	1cc	2r
.	.	.	1cc
2e	2g	1r	.
2f	2a	.	2cc
=110	=110	=110	=110
4d	4f	2r	1ff
4e	4g	.	.
4f	4a	1a	.
4g	4b-	.	.
2a	2cc	.	2ee
2d	2f	2a	2ff
=111	=111	=111	=111
2.g	2r	1b-	4dd
.	.	.	4cc
.	2b-	.	4dd
4g	.	.	4ee
2f	2cc	2a	1ff
4d	[2b-	2b-	.
4d	.	.	.
=112	=112	=112	=112
1e-	4b-]	4g	1.gg
.	4a	4a	.
.	4g	4b-	.
.	4a	4cc	.
1d	2b-	2dd	.
.	2a	2dd	2ff#
=113	=113	=113	=113
2r	2r	1r	2r
2G	2b-	.	2gg
2d	2.a	2r	2.ff
2d	.	2d	.
.	4g	.	4ee
=114	=114	=114	=114
2d	2f	1a	2dd
2A	2e	.	2cc
2B-	2d	1r	2dd
4c	4g	.	[2ee-
4d	4f	.	.
=115	=115	=115	=115
4e-	4g	0r	4ee-]
4f	4a	.	4dd
2g	1b-	.	4dd
.	.	.	8cc
.	.	.	8b-
1f	.	.	1cc
.	2a	.	.
=116	=116	=116	=116
2.B-	2b-	2r	2dd
.	2g	2b-	2dd
4c	.	.	.
1d	2.f	2.a	2dd
.	.	.	2dd
.	4g	4g	.
=117	=117	=117	=117
2r	2a	2f	2dd
2g	2g	2e	2cc#
2.f	2a	2d	1dd
.	[2a	4d	.
4e	.	4e	.
=118	=118	=118	=118
2d	4a]	4f	2r
.	4f	4d	.
2c	4g	2e	2gg
.	4a	.	.
2.d	2b-	2d	2.ff
.	2a	2f	.
4c	.	.	4ee
=119	=119	=119	=119
4d	2r	2b-	2dd
4e	.	.	.
2f	1f	2a	2cc
2.B-	.	2b-	[1dd
.	2b-	2g	.
4c	.	.	.
=120	=120	=120	=120
2d	2a	2f#	1dd]
2G	2b-	2.g	.
1c	2g	.	1ee-
.	.	4c	.
.	[2a	[2cc	.
=121	=121	=121	=121
1d	2a]	2cc]	[0dd
.	1g	2b-	.
1d	.	1a	.
.	2f	.	.
=122	=122	=122	=122
1G	2.b-	2.g	1dd_
.	4a	4a	.
1G	1g	1b-	1dd_
=123	=123	=123	=123
0d	0f#	0a	0dd]
!! Et iterum
*Ibass	*Itenor	*Icalto	*Icalto
!Bassus	!Tenor	!Altus 2	!Altus 1
*clefF4	*clefGv2	*clefG2	*clefG2
*k[b-]	*k[b-]	*k[b-]	*k[b-]
*G:dor	*G:dor	*G:dor	*G:dor
*M4/2	*M4/2	*M4/2	*M4/2
=124	=124	=124	=124
0D	0d	0f#	0a
=125	=125	=125	=125
1.G	1.d	1.g	1.b-
2F#	2d	2a	2a
=126	=126	=126	=126
2G	2d	2b-	2.g
2G	2d	2b-	.
.	.	.	4f
2A	2c#	2a	2e
2B-	2d	2g	2d
=127	=127	=127	=127
0A	4e	[0a	2c#
.	8d	.	.
.	8e	.	.
.	2f	.	1d
.	1e	.	.
.	.	.	2c#
=128	=128	=128	=128
1r	1f	1a]	1d
1D	1d	1a	1f#
=129	=129	=129	=129
1.G	1.d	1.b-	1.g
2F#	2d	2a	2a
=130	=130	=130	=130
2G	1d	2.g	1b-
2G	.	.	.
.	.	4f	.
2A	2c#	2e	2a
2B-	2d	2d	2g
=131	=131	=131	=131
0A	4e	2c#	1a
.	8d	.	.
.	8e	.	.
.	2f	1d	.
.	1e	.	2a
.	.	2c#	2a
=132	=132	=132	=132
2r	2r	1d	4a
.	.	.	4g
2B-	2d	.	4f
.	.	.	4e
4B-	4d	2r	1d
4A	4c	.	.
4G	4B-	2g	.
4F	4A	.	.
=133	=133	=133	=133
1.E-	1.G	4g	2r
.	.	4f	.
.	.	4e-	2g
.	.	4d	.
.	.	4c	2g
.	.	4B-	.
2D	2B-	[2B-	2f
=134	=134	=134	=134
2C	2c	2B-]	2e-
2C	2c	2A	2e-
1BB-	2F	2B-	1d
.	2B-	2d	.
=135	=135	=135	=135
2r	2B-	1c	1r
2F	2A	.	.
2G	1B-	1B-	2r
[2B-	.	.	2f
=136	=136	=136	=136
4B-]	0r	0r	2g
4A	.	.	.
4G	.	.	2.b-
4F	.	.	.
2.G	.	.	.
.	.	.	4a
.	.	.	4g
4A	.	.	4f
=137	=137	=137	=137
4B-	1r	0r	2g
4c	.	.	.
1d	.	.	2f
.	1A	.	1e
2c#	.	.	.
=138	=138	=138	=138
1d	2B-	2r	2d
.	2.d	2f	2d
1r	.	2a	2f
.	4c	.	.
.	4B-	[2b-	[2g
.	4A	.	.
=139	=139	=139	=139
0r	0G	4b-]	4g]
.	.	4a	4f
.	.	4g	4e
.	.	4f	4d
.	.	2g	2e
.	.	2f	[2d
=140	=140	=140	=140
1r	1A	1e	2d]
.	.	.	2c#
2r	1f	2d	1d
[2B-	.	[2d	.
=141	=141	=141	=141
2B-]	2d	2d]	0r
2G	2e	2B-	.
2A	2.f	2c	.
[2B-	.	2d	.
.	4e	.	.
=142	=142	=142	=142
4B-]	4d	1G	2r
4A	4c	.	.
4G	4B-	.	1b-
4F	4A	.	.
2.E-	4G	2r	.
.	4A	.	.
.	2B-	[2e-	2g
4D	.	.	.
=143	=143	=143	=143
2C	2c	2e-]	2a
2BB-	2F	1d	1b-
1E-	1G	.	.
.	.	2c	4a
.	.	.	4g
=144	=144	=144	=144
0D	2A	0d	2f#
.	2B-	.	1g
.	1A	.	.
.	.	.	2f#
=145	=145	=145	=145
2r	2G	1d	0g
2G	2B-	.	.
2B-	2d	1r	.
[2c	[2e-	.	.
=146	=146	=146	=146
4c]	4e-]	0r	0r
4B-	4d	.	.
4A	4c	.	.
4G	4B-	.	.
2A	2c	.	.
[2G	2B-	.	.
=147	=147	=147	=147
2G]	1A	1r	1r
2F#	.	.	.
1G	1G	2r	2r
.	.	2d	2g
=148	=148	=148	=148
2r	0r	2f	2a
2G	.	2.g	2.b-
2B-	.	.	.
.	.	4f	4a
[2c	.	4e	4g
.	.	4d	4f
=149	=149	=149	=149
4c]	0r	2e	2g
8B-	.	.	.
8c	.	.	.
2d	.	1d	2f
1A	.	.	1e
.	.	2c#	.
=150	=150	=150	=150
2r	1f	2d	1d
1B-	.	1d	.
.	2d	.	1r
2G	2e	2B-	.
=151	=151	=151	=151
2A	2.f	2c	1r
2.B-	.	2d	.
.	4e	.	.
.	4d	1G	2r
4A	4c	.	.
4G	4B-	.	[2b-
4F	4A	.	.
=152	=152	=152	=152
2.E-	4G	2r	2b-]
.	4A	.	.
.	2B-	1e-	2g
4D	.	.	.
2C	2c	.	2a
2BB-	2F	[2d	[2b-
=153	=153	=153	=153
1E-	1G	2d]	2b-]
.	.	2c	4a
.	.	.	4g
2D	1A	[1d	4f
.	.	.	4g
2D	.	.	[2a
=154	=154	=154	=154
2.BB-	1B-	0d]	4a]
.	.	.	4g
.	.	.	1g
4C	.	.	.
1D	1A	.	.
.	.	.	2f#
=155	=155	=155	=155
0G	0B	0d	0g
*-	*-	*-	*-
!! Et in Spiritum
**kern	**kern	**kern	**kern	**kern
*Ibass	*Itenor	*Icalto	*Icalto	*Icant
!Bassus	!Tenor	!Altus 2	!Altus 1	!Cantus
*clefF4	*clefGv2	*clefG2	*clefG2	*clefG2
*k[b-]	*k[b-]	*k[b-]	*k[b-]	*k[b-]
*G:dor	*G:dor	*G:dor	*G:dor	*G:dor
*M3/2	*M3/2	*M3/2	*M3/2	*M3/2
=156	=156	=156	=156	=156
1G	2r	1d	1g	1b
.	2G	.	.	.
2C	2G	2e-	2g	2cc
=157	=157	=157	=157	=157
2.G	2.B-	2.d	2.g	2.dd
4G	4B-	4d	4g	4dd
2G	2B-	2B-	2g	2dd
=158	=158	=158	=158	=158
1F	2.A	2.c	1a	1ff
.	4B-	4d	.	.
2C	2c	2e	2g	2ee
=159	=159	=159	=159	=159
1F	2c	2f	1a	1cc
.	2A	2f	.	.
2D	2A	2f	2f	2dd
=160	=160	=160	=160	=160
1.C	2c	2g	2e	2ee
.	2c	2cc	2g	2ee
.	2c	2cc	2g	2ee
=161	=161	=161	=161	=161
1r	2F	2a	2cc	2ff
.	2.c	2.g	2.cc	2.ee
2r	.	.	.	.
.	4d	4f	4b-	4dd
=162	=162	=162	=162	=162
1r	2B-	2d	2g	1dd
.	1A	1e	1a	.
2r	.	.	.	2cc#
=163	=163	=163	=163	=163
2r	2d	2d	2f#	1.dd
2D	2A	2d	2f#	.
2G	2B	2d	2g	.
=164	=164	=164	=164	=164
1F	1c	1f	1a	1r
2C	2c	2e	2g	2r
=165	=165	=165	=165	=165
2.F	1c	2.a	1f	1r
4G	.	4b-	.	.
2A	2c	2cc	2e	2r
=166	=166	=166	=166	=166
2G	1d	2b-	2g	1r
2D	.	2.a	2f	.
2E-	2B-	.	[2e-	2r
.	.	4g	.	.
=167	=167	=167	=167	=167
2C	2c	1g	2e-]	1r
1D	1A	.	1d	.
.	.	2f#	.	2r
=168	=168	=168	=168	=168
1G	2G	1g	2d	2r
.	2G	.	2g	2dd
2r	2c	2r	2g	2ee-
=169	=169	=169	=169	=169
1G	2B-	1g	4b-	2dd
.	.	.	4a	.
.	2B-	.	4g	2b-
.	.	.	4f	.
2c	2r	2g	2e-	2cc
=170	=170	=170	=170	=170
2B-	2f	2b-	2d	1dd
2B-	2.d	2f	1b-	.
2G	.	2g	.	2dd
.	4e	.	.	.
=171	=171	=171	=171	=171
1d	4f	2a	1a	1.dd
.	4g	.	.	.
.	2a	2f	.	.
2d	2f	2d	2b-	.
=172	=172	=172	=172	=172
1c	4g	1e	1cc	1r
.	4f	.	.	.
.	4e	.	.	.
.	4d	.	.	.
2r	2c	2r	2r	2r
=173	=173	=173	=173	=173
2.F	2.c	2.f	2.a	2.ff
4F	4c	4f	4a	4ff
2D	2d	2f	2a	2ff
=174	=174	=174	=174	=174
2A	2e	2c	2a	2ee
1D	1f	1d	1a	1dd
=175	=175	=175	=175	=175
1A	1e	2e	1a	1cc#
.	.	2r	.	.
2A	2c#	2e	2a	2ee
=176	=176	=176	=176	=176
2.D	2.d	2.a	2.f	2.ff
4D	4d	4a	4f	4ff
2D	2d	2a	2d	2ff
=177	=177	=177	=177	=177
2A	2c#	2a	2e	2ee
1D	1d	1a	1f	1dd
=178	=178	=178	=178	=178
2A	2c#	2a	2e	2ee
2D	2d	2a	2d	2ff#
2G	2B	2g	2d	2gg
=179	=179	=179	=179	=179
1C	1c	1g	2e	1ee
.	.	.	2c	.
2G	2B	2g	2d	2dd
=180	=180	=180	=180	=180
2C	2c	2e	2g	2ee
1F	1c	2c	1a	1ff
.	.	[2d	.	.
=181	=181	=181	=181	=181
2G	2B-	2d]	2.g	2dd
1D	1A	1d	.	1dd
.	.	.	4f#	.
.	.	.	2f#	.
!! Et unam sanctam
*Ibass	*Itenor	*Icalto	*Icalto	*Icant
!Bassus	!Tenor	!Altus 2	!Altus 1	!Cantus
*clefF4	*clefGv2	*clefG2	*clefG2	*clefG2
*k[b-]	*k[b-]	*k[b-]	*k[b-]	*k[b-]
*G:dor	*G:dor	*G:dor	*G:dor	*G:dor
*M4/2	*M4/2	*M4/2	*M4/2	*M4/2
=182	=182	=182	=182	=182
0G	0G	1d	1g	1b
.	.	2r	2r	2r
.	.	2g	2b-	2dd
=183	=183	=183	=183	=183
0r	0r	2f#	2a	2dd
.	.	2g	2b-	2dd
.	.	1a	1cc	2ff
.	.	.	.	[2ee
=184	=184	=184	=184	=184
0r	1r	2g	2b-	4ee]
.	.	.	.	4dd
.	.	2f	2a	1dd
.	2r	2.e	2.g	.
.	2g	.	.	2cc#
.	.	4e	4g	.
=185	=185	=185	=185	=185
2r	2f#	1d	2a	1dd
2G	2g	.	2d	.
2F#	2a	1r	2d	1r
2G	2g	.	2d	.
=186	=186	=186	=186	=186
2.A	2f	1r	2.c	2r
.	2.e	.	.	2cc
4A	.	.	4c	.
2G	.	2r	2B-	1dd
.	4d	.	.	.
2F	[2d	2f	2A	.
=187	=187	=187	=187	=187
2E	4d]	2.g	2G	1ee
.	4c#	.	.	.
2E	2c#	.	2G	.
.	.	4g	.	.
1D	1d	2f	2A	2.ff
.	.	2f	2a	.
.	.	.	.	4ff
=188	=188	=188	=188	=188
0r	1G	2b-	2.g	2ee
.	.	2b-	.	2dd
.	.	.	4f	.
.	1A	2a	2e	2dd
.	.	2a	2e	2cc#
=189	=189	=189	=189	=189
1D	0r	2f#	2d	2dd
.	.	2f#	2a	2dd
2.G	.	2.g	2.b-	2.dd
4G	.	4g	4b-	4dd
=190	=190	=190	=190	=190
2G	1r	2g	2b-	2dd
2B-	.	2f	2b-	2dd
2F	2r	2f	2a	2cc
2G	2G	[2d	2g	2b-
=191	=191	=191	=191	=191
1D	2.d	4d]	1f	2a
.	.	4e	.	.
.	.	4f	.	2a
.	4d	4g	.	.
1D	2d	1a	2f	1ff
.	2f	.	2d	.
=192	=192	=192	=192	=192
0r	2c	1a	2e	2ee
.	2d	.	2f	2dd
.	2A	1a	2e	2cc#
.	2A	.	2e	2cc#
=193	=193	=193	=193	=193
2.D	2.d	2.a	2.f#	2.dd
4D	4d	4a	4f#	4dd
2G	2d	2b	2g	2dd
2G	2d	2b	2g	2dd
=194	=194	=194	=194	=194
1C	1c	2cc	1g	1ee-
.	.	1cc	.	.
1G	1d	.	1g	[1dd
.	.	[2b-	.	.
=195	=195	=195	=195	=195
1F	1f	2b-]	0r	2dd]
.	.	2a	.	1cc
1G	2e	2g	.	.
.	[2d	2f	.	2b-
=196	=196	=196	=196	=196
1A	2d]	1e	1r	1a
.	2c#	.	.	.
1D	2d	1d	2r	[1a
.	[2d	.	[2f	.
=197	=197	=197	=197	=197
0r	2d]	1r	2f]	1a]
.	2c	.	2e	.
.	1B-	1d	1g	2r
.	.	.	.	[2dd
=198	=198	=198	=198	=198
1r	1A	1e	1a	2dd]
.	.	.	.	2cc
[1G	2r	2.g	2d	2.b-
.	[2B-	.	2d	.
.	.	4g	.	4cc
=199	=199	=199	=199	=199
2G]	2B-]	4b-	1d	4dd
.	.	4g	.	4ee
2F	2A	2a	.	4ff
.	.	.	.	4dd
1E-	1c	2.g	1G	[1gg
.	.	4a	.	.
=200	=200	=200	=200	=200
1D	1d	2b-	0r	2gg]
.	.	4a	.	2ff
.	.	4g	.	.
2.B-	2.d	[1f	.	2.dd
4B-	4d	.	.	4dd
=201	=201	=201	=201	=201
2B-	2B-	1f]	1r	2dd
2A	2c	.	.	2cc
[1G	1d	2.b-	2.g	2b-
.	.	.	.	2g
.	.	4b-	4g	.
=202	=202	=202	=202	=202
2G]	1d	2b-	2g	1dd
2D	.	2a	2f	.
[1E-	1G	2g	2e-	2cc
.	.	2g	2e-	[2b-
=203	=203	=203	=203	=203
2E-]	2G	2g	2B-	4b-]
.	.	.	.	4cc
2D	2.B-	2f	2B-	4dd
.	.	.	.	8cc
.	.	.	.	8dd
1C	.	2e-	1c	1ee-
.	8A	.	.	.
.	8G	.	.	.
.	2A	2c	.	.
=204	=204	=204	=204	=204
1BB-	1B-	1d	[0f	0dd
2r	1d	2r	.	.
2BB-	.	2b-	.	.
=205	=205	=205	=205	=205
1F	1c	1a	1f]	1r
1BB-	2d	1b-	2r	1dd
.	2B-	.	2b-	.
=206	=206	=206	=206	=206
0r	1f	0r	1a	1cc
.	2B-	.	4b-	1dd
.	.	.	4a	.
.	2B-	.	4g	.
.	.	.	4f	.
=207	=207	=207	=207	=207
0r	2c	0r	2e-	2g
.	2d	.	2f	1b-
.	2e-	.	2g	.
.	2f	.	2f	2a
=208	=208	=208	=208	=208
1r	1c	1r	2f	2g
.	.	.	2e	2g
1F	2r	1a	1f	2f
.	2f	.	.	2cc
=209	=209	=209	=209	=209
1c	1e	1g	1r	1cc
2F	1f	1a	2r	1cc
2F	.	.	2cc	.
=210	=210	=210	=210	=210
2G	2r	2d	2b-	2r
2A	2F	1f	2a	2cc
2B-	2G	.	2d	2b-
[2c	2A	2e	2c	2a
=211	=211	=211	=211	=211
4c]	2B-	2d	0f	2.dd
4B-	.	.	.	.
1B-	2B-	2d	.	.
.	.	.	.	4ee
.	1F	1c	.	2ff
2A	.	.	.	2ff
=212	=212	=212	=212	=212
1B-	0r	2r	2.d	1ff
.	.	4B-	.	.
.	.	4c	4e	.
1r	.	4d	4f	2r
.	.	4e	4g	.
.	.	[2f	[2a	4f
.	.	.	.	4g
=213	=213	=213	=213	=213
0r	0r	2f]	2a]	4a
.	.	.	.	4b-
.	.	2e	2g	1cc
.	.	2f	2a	.
.	.	2d	4f	2b
.	.	.	4g	.
=214	=214	=214	=214	=214
0r	0r	2c	4a	2cc
.	.	.	4g	.
.	.	2B-	2.b-	2dd
.	.	1e-	.	1g
.	.	.	4a	.
.	.	.	[2g	.
=215	=215	=215	=215	=215
0r	0r	1d	2g]	1a
.	.	.	2f#	.
.	.	1G	1g	2g
.	.	.	.	4b-
.	.	.	.	4cc
=216	=216	=216	=216	=216
2.BB-	1r	4B-	0f	4dd
.	.	4c	.	4ee
.	.	4d	.	2.ff
4C	.	4e	.	.
4D	2.F	4f	.	.
4E	.	4g	.	4ee
[2F	.	[2a	.	[2cc
.	4G	.	.	.
=217	=217	=217	=217	=217
2F]	4A	2a]	2r	4cc]
.	4B-	.	.	4dd
2E	1c	2g	2g	2ee
2F	.	2f	2a	1dd
2G	2B	2d	[2g	.
=218	=218	=218	=218	=218
2C	2c	2e	2g]	2r
2BB-	2d	2f	2.b-	2.dd
1E-	1G	2g	.	.
.	.	.	4a	8cc
.	.	.	.	8b-
.	.	2G	[2g	2cc
=219	=219	=219	=219	=219
0D	0A	0d	2g]	0dd
.	.	.	4f#	.
.	.	.	4e	.
.	.	.	1f#	.
=220	=220	=220	=220	=220
0G	0G	0d	0g	0b
==	==	==	==	==
*-	*-	*-	*-	*-
!!!CDT: 1525/^1526/-1594/2/2
!!!OCY: Italia
!!!AGN: Mass (Paraphrase)
!!!AST: renaissance, vocal
!!!ASW: Antiphon
!!!PWK: Masses, Book 11
!!!RNB: Cadence finals: D
!!!YOR: Le Opere Complete, v. 28, p. 185
!!!YOO: Rome, Italy: Fratelli Scalera
!!!END: 1992//
!!!EED: John Miller
!!!YEC: Copyright 2000, John Miller
!!!YEN: United States of America
!!!YEM: Rights to all derivative electronic formats reserved.
!!!YEM: Refer to licensing agreement for further details.
!!!YEM: This file must be accompanied by the licensing agreement.
!!!YEM: A copy of the licensing agreement may be found at http://www.music-cog.ohio-state.edu/HumdrumDatabases/Palestrina/license.txt
!!!EMD: converted to Humdrum by Bret Aarden
